src/assets/img/svgs/isolated-roads.svg

<?xml version="1.0" encoding="UTF-8"?>
<svg width="255px" height="255px" viewBox="0 0 255 255" version="1.1" xmlns="http://www.w3.org/2000/svg" xmlns:xlink="http://www.w3.org/1999/xlink">
    <!-- Generator: Sketch 58 (84663) - https://sketch.com -->
    <title>Icon / Modes / Isolated / Roads</title>
    <desc>Created with Sketch.</desc>
    <g id="Icon-/-Modes-/-Isolated-/-Roads" stroke="none" stroke-width="1" fill="none" fill-rule="evenodd">
        <path d="M177.042227,34 C184.904645,34 192.659473,40.3049445 194.260924,48.0165039 L202.876479,91.6629373 C204.353787,99.3869081 208.814675,108.906381 212.778989,112.815943 C216.743303,116.725505 220,126.352543 220,134.229587 L220,184.23061 C220,192.107654 213.556955,198.544985 205.682122,198.544985 L205.653155,198.544985 L205.653155,215.705687 C205.653155,218.07211 203.724793,220 201.357791,220 L188.488253,220 C186.121251,220 184.197028,218.07211 184.197028,215.705687 L184.197028,198.544985 L69.7491768,198.544985 L69.7491768,215.705687 C69.7491768,218.07211 67.8084008,220 65.4538133,220 L52.5718608,220 C50.2048589,220 48.2764973,218.07211 48.2764973,215.705687 L48.2764973,198.544985 C40.4099404,198.520163 34,192.091105 34,184.23061 L34,134.229587 C34,126.352543 37.1863487,116.725505 41.0720388,112.815943 C44.9660052,108.906381 49.4268933,99.4034565 50.9828246,91.68776 L59.7763193,48.0454636 C61.31156,40.3173558 69.000178,34 76.8625968,34 L177.042227,34 Z M162.837824,160 L91.1663213,160 C87.2080582,160 84,163.13046 84,166.997975 C84,170.86954 87.2080582,174 91.1663213,174 L162.837824,174 C166.796087,174 170,170.86954 170,166.997975 C170,163.13046 166.796087,160 162.837824,160 Z M59.5020235,127 C53.7228753,127 49,131.735016 49,137.526306 C49,143.317595 53.7228753,148 59.5020235,148 C65.2771247,148 70,143.317595 70,137.526306 C70,131.735016 65.2771247,127 59.5020235,127 Z M195.497976,127 C189.722875,127 185,131.735016 185,137.526306 C185,143.317595 189.722875,148 195.497976,148 C201.289266,148 206,143.317595 206,137.526306 C206,131.735016 201.289266,127 195.497976,127 Z M173.478063,48 L80.4766956,48 C76.5419905,48 72.781058,51.1646037 72.1232051,55.0347448 L65.2591928,91.0089034 C63.7531648,98.6996743 68.9663387,105 76.8398862,105 L177.114872,105 C184.992557,105 190.230555,98.6996743 188.749352,90.9965255 L181.943264,55.0099891 C181.219212,51.1522258 177.416905,48 173.478063,48 Z" id="Combined-Shape" fill="#42194F"></path>
    </g>
</svg>

<svg width="255" height="255" xmlns="http://www.w3.org/2000/svg"><path d="M177.042 34c7.863 0 15.617 6.305 17.219 14.017l8.615 43.646c1.478 7.724 5.939 17.243 9.903 21.153 3.964 3.91 7.221 13.537 7.221 21.414v50c0 7.878-6.443 14.315-14.318 14.315h-.029v17.16a4.302 4.302 0 01-4.295 4.295h-12.87a4.298 4.298 0 01-4.291-4.294v-17.161H69.749v17.16A4.31 4.31 0 0165.454 220H52.572a4.302 4.302 0 01-4.296-4.294v-17.161C40.41 198.52 34 192.091 34 184.231V134.23c0-7.877 3.186-17.504 7.072-21.414 3.894-3.91 8.355-13.413 9.91-21.128l8.794-43.643C61.312 40.317 69 34 76.863 34h100.18zm-14.204 126H91.166c-3.958 0-7.166 3.13-7.166 6.998 0 3.872 3.208 7.002 7.166 7.002h71.672c3.958 0 7.162-3.13 7.162-7.002 0-3.868-3.204-6.998-7.162-6.998zM59.502 127C53.722 127 49 131.735 49 137.526 49 143.318 53.723 148 59.502 148 65.277 148 70 143.318 70 137.526 70 131.735 65.277 127 59.502 127zm135.996 0c-5.775 0-10.498 4.735-10.498 10.526 0 5.792 4.723 10.474 10.498 10.474 5.791 0 10.502-4.682 10.502-10.474 0-5.791-4.71-10.526-10.502-10.526zm-22.02-79H80.477c-3.935 0-7.696 3.165-8.354 7.035L65.26 91.009C63.753 98.699 68.966 105 76.84 105h100.276c7.878 0 13.116-6.3 11.634-14.003l-6.806-35.987c-.724-3.858-4.526-7.01-8.465-7.01z" fill="#42194F" fill-rule="evenodd"/></svg>
